X:171
T:RVW2/2/171 Lay Still
C:Mr. Kemp, Herongate, Essex, 26 October 1904
L:1/8
Q:1/4=100
M:3/4
I:linebreak $
K:G
"^(Editorial suggestion) " (G>B) | d2 d2 (d>c) | (B>A) G2 G2 | c2 c2 c>B | A4 B>c |$ (de) =f2 ee | 
w: Lay _|still my fond _|shep- * herd and|do not rise _|yet, it's a|cold _ cold dew- y|
(d>B) (GB) AF | GA B2 AA | G4 |] 
w: morn- * ing _ and be-|sides my love it is|wet.|


